X: 1
T: Evening Comes Early
R: reel
M: 4/4
L: 1/8
K: Dmaj
BFFF dBcA|BAFB AFEF|B2 AF B3 c|dgfd edcA|
BFFF d2 cA|BAFB AFED|E3 FG3 A|Bcdg fdec:|
|:BGGG BcdB|c2 AB cdeg|fdfa bfaf|g2 fd edcA|
BGAG BcdB|c2 AB cdeg|fdfa bfag|1 fdBA BBBB:|2 fdBA Bdfa||
|:bgaf g2 fd|e2 af gfed|cAAA eAcA|Bcdf eBcB|
bgaf g2 fd|eaaf gfed|B3 c dgfd|1 edBc dega:|2 edBc d3 c||

